usr/share/icons/biglinux-icons-material/24/actions/step_object_CoulombForce.svg

<svg xmlns="http://www.w3.org/2000/svg" viewBox="0 0 24 24">
  <defs id="defs3051">
    <style type="text/css" id="current-color-scheme">
      .ColorScheme-Text {
        color:#dedede;
      }
      .ColorScheme-Highlight {
        color:#3daee9;
      }
      </style>
  </defs><g transform="translate(1,1)">
 <path 
     style="fill:currentColor;fill-opacity:1;stroke:none" 
     d="M 12.087891 1 L 12.455078 1.3789062 L 14.076172 3 L 12 3 L 4 3 L 4 4 L 14.076172 4 L 16.5 4 L 15.990234 3.5 L 13.490234 1 L 12.087891 1 z M 4 5 L 4 19 L 5 19 L 5 12 L 11 12 L 11 11 L 5 11 L 5 6 L 13 6 L 13 5 L 5 5 L 4 5 z "
     class="ColorScheme-Text"
     />
 <path 
     style="fill:currentColor;fill-opacity:1;stroke:none" 
     d="M 15.5 12 A 3.4999979 3.5 0 0 0 12 15.5 A 3.4999979 3.5 0 0 0 15.5 19 A 3.4999979 3.5 0 0 0 17.972656 17.972656 L 17.267578 17.267578 A 2.5 2.5 0 0 1 15.5 18 A 2.5 2.5 0 0 1 13 15.5 A 2.5 2.5 0 0 1 15.5 13 A 2.5 2.5 0 0 1 17.267578 13.732422 L 17.972656 13.027344 A 3.4999979 3.5 0 0 0 15.5 12 z "
     class="ColorScheme-Highlight"
     />
</g></svg>

<svg xmlns="http://www.w3.org/2000/svg" viewBox="0 0 24 24"><path d="m12.088 1 .367.379L14.076 3H4v1h12.5l-.51-.5-2.5-2.5h-1.402zM4 5v14h1v-7h6v-1H5V6h8V5H4z" style="fill:currentColor;fill-opacity:1;stroke:none;color:#dedede" transform="translate(1 1)"/><path d="M15.5 12a3.5 3.5 0 0 0-3.5 3.5 3.5 3.5 0 0 0 3.5 3.5 3.5 3.5 0 0 0 2.473-1.027l-.705-.705A2.5 2.5 0 0 1 15.5 18a2.5 2.5 0 0 1-2.5-2.5 2.5 2.5 0 0 1 2.5-2.5 2.5 2.5 0 0 1 1.768.732l.705-.705A3.5 3.5 0 0 0 15.5 12z" style="fill:currentColor;fill-opacity:1;stroke:none;color:#3daee9" transform="translate(1 1)"/></svg>
